dist/img/case-bingel-04.svg

<svg viewBox="0 0 430 226" xmlns="http://www.w3.org/2000/svg" xmlns:xlink="http://www.w3.org/1999/xlink"><clipPath id="a" transform="translate(5 5)"><rect height="216" rx="12" width="420"/></clipPath><clipPath id="b" transform="translate(5 5)"><path d="m-970-136h1440v420h-1440z"/></clipPath><clipPath id="c" transform="translate(5 5)"><path d="m46 111.24-7.41-7.41 2.82-2.83 4.59 4.59 8.59-8.59 2.82 2.83zm-14-18.24v24h32v-24zm32 28h-32a4 4 0 0 1 -4-4v-28a4 4 0 0 1 4-4h32a4 4 0 0 1 4 4v28a4 4 0 0 1 -4 4z"/></clipPath><clipPath id="d" transform="translate(5 5)"><path d="m290 110-10 10h20z"/></clipPath><g clip-path="url(#a)"><g clip-path="url(#b)"><path d="m0 0h430v226h-430z" fill="#e67e22"/></g></g><text fill="#fff" font-family="OpenSans-Regular, Open Sans" font-size="21" transform="translate(33 57)">Bingel taken</text><text fill="#fff" font-family="OpenSans-Regular, Open Sans" font-size="21" transform="translate(33 188)">In vergelijking tot 7 mln. vorig jaar.</text><path d="m33 152.5h364" fill="none" stroke="#d35400" stroke-linecap="square" stroke-miterlimit="10" stroke-width="2"/><text fill="#fff" font-family="OpenSans-Bold, Open Sans" font-size="48" font-weight="700" transform="translate(93 126)">11 mln.</text><g clip-path="url(#c)"><g clip-path="url(#b)"><path d="m28 85h50v46h-50z" fill="#d35400"/></g></g><text fill="#f1c40f" font-family="OpenSans-Bold, Open Sans" font-size="21" font-weight="700" transform="translate(312 126)">+47%</text><g clip-path="url(#d)"><g clip-path="url(#b)"><path d="m280 110h30v20h-30z" fill="#f1c40f"/></g></g></svg>

<svg xmlns="http://www.w3.org/2000/svg" xmlns:xlink="http://www.w3.org/1999/xlink" viewBox="0 0 430 226"><defs><style>.cls-1,.cls-6{fill:none;}.cls-2{clip-path:url(#clip-path);}.cls-3{clip-path:url(#clip-path-2);}.cls-4{fill:#e67e22;}.cls-10,.cls-5{font-size:21px;}.cls-5,.cls-7{fill:#fff;}.cls-5{font-family:OpenSans-Regular, Open Sans;}.cls-6{stroke:#d35400;stroke-linecap:square;stroke-miterlimit:10;stroke-width:2px;}.cls-7{font-size:48px;}.cls-10,.cls-7{font-family:OpenSans-Bold, Open Sans;font-weight:700;}.cls-8{clip-path:url(#clip-path-3);}.cls-9{fill:#d35400;}.cls-10,.cls-12{fill:#f1c40f;}.cls-11{clip-path:url(#clip-path-5);}</style><clipPath id="clip-path" transform="translate(5 5)"><rect class="cls-1" width="420" height="216" rx="12"/></clipPath><clipPath id="clip-path-2" transform="translate(5 5)"><rect class="cls-1" x="-970" y="-136" width="1440" height="420"/></clipPath><clipPath id="clip-path-3" transform="translate(5 5)"><path class="cls-1" d="M46,111.24l-7.41-7.41L41.41,101,46,105.59,54.59,97l2.82,2.83L46,111.24ZM32,93v24H64V93Zm32,28H32a4,4,0,0,1-4-4V89a4,4,0,0,1,4-4H64a4,4,0,0,1,4,4v28A4,4,0,0,1,64,121Z"/></clipPath><clipPath id="clip-path-5" transform="translate(5 5)"><polygon class="cls-1" points="290 110 280 120 300 120 290 110"/></clipPath></defs><g id="Layer_2" data-name="Layer 2"><g id="Layer_1-2" data-name="Layer 1"><g class="cls-2"><g class="cls-3"><rect class="cls-4" width="430" height="226"/></g></g><text class="cls-5" transform="translate(33 57)">Bingel taken</text><text class="cls-5" transform="translate(33 188)">In vergelijking tot 7 mln. vorig jaar.</text><line class="cls-6" x1="33" y1="152.5" x2="397" y2="152.5"/><text class="cls-7" transform="translate(93 126)">11 mln.</text><g class="cls-8"><g class="cls-3"><rect class="cls-9" x="28" y="85" width="50" height="46"/></g></g><text class="cls-10" transform="translate(312 126)">+47%</text><g class="cls-11"><g class="cls-3"><rect class="cls-12" x="280" y="110" width="30" height="20"/></g></g></g></g></svg>
